X:1
T:Title
%%score { ( 1 4 ) | ( 2 3 5 ) }
L:1/8
M:4/4
K:Db
V:1 treble nm="Grand Piano"
V:4 treble 
V:2 bass 
V:3 bass 
V:5 bass 
V:1
 z4 z2[Q:1/4=90] F2 | [DF]2 AG F D2 F | [CG]2 GG [A,DF]3 F | [B,G]2 BG [A,F] D2 F | %4
 [CE]2 [DF]D C3 G | FAGF D3 F | [F,F]2 [=G,_F]E D3 D | [DB]2 AG [A,F]2 DF | %8
 [G,E]2 DC [F,D]3[K:treble] F | G2 [DB]G [A,F]2 DF |[M:3/4] [CG]2 GG F2 |] %11
V:2
 z4 z2 A,2 | z2 CB, A, F,2 D | z2 B,C z2 z A, | z2 DB, z F,2 D | E,2 z =G, A,3 A, | %5
 D2 CB, z F,2 F, | F,,2 z =A, B,3 B, | z2 CB, z2 F,A, | z2 F,E, z2 z A, | [G,B,]2 z B, z2 F,D | %10
[M:3/4] z2 B,C [D,D]2 |] %11
V:3
 x8 | D,8 | A,,4 D,4 | G,,4 D,4 | z2 E,,2 [A,,E,]4 | D,8 | z2 F,2 [B,,D,]4 | G,,4 D,4 | A,,4 D,4 | %9
 z2 [G,,G,]2 D,4 |[M:3/4] A,,4 z2 |] %11
V:4
 x8 | x8 | x8 | x8 | x8 | z4 .A,2 z2 | x8 | x8 | x7[K:treble] x | x8 |[M:3/4] x6 |] %11
V:5
 x8 | x8 | x8 | x8 | x8 | z4 D,,4 | x8 | x8 | x8 | x8 |[M:3/4] x6 |] %11

